X:134
T: My Daddy O
N: O'Farrell's Pocket Companion v.2 (Sky ed. p.72)
N: "Scotch"
M: C
L: 1/8
Q: 320
R: reel % ?
K: D
FE|DEDF A>BAF|A2 de d3B|A>Bd>e {e}f2 ed|e2 E2 E2 A/G/F/E/|
DEDF A>BAF|A2 de d3B|ABde {e}f2 ed/e/|d2 DE D2 :|
de|fgfe dBdB|A2 d>e d3f|GFGA BAGF|E2 e2 e2 ag|
fed>f edc>e|dcBA BAGF|EFEB AGFE|D2 de d2 :|
